icons/1_Primary/sourcehut.svg

<svg xmlns="http://www.w3.org/2000/svg" width="1024" height="1024" fill="none">
   <g clip-path="url(#a)">
      <path fill="#56595B" d="M512 1024c282.77 0 512-229.23 512-512S794.77 0 512 0 0 229.23 0 512s229.23 512 512 512Z"/>
      <path fill="#fff" d="M512 256c-141.42 0-256 114.58-256 256 0 141.42 114.58 256 256 256 141.42 0 256-114.58 256-256 0-141.42-114.58-256-256-256Zm0 462.45c-114.06 0-206.45-92.39-206.45-206.45 0-114.06 92.39-206.45 206.45-206.45 114.06 0 206.45 92.39 206.45 206.45 0 114.06-92.39 206.45-206.45 206.45Z"/>
   </g>
   <defs>
      <clipPath id="a">
         <path fill="#fff" d="M0 0h1024v1024H0z"/>
      </clipPath>
   </defs>
</svg>

<svg width="1024" height="1024" viewBox="0 0 1024 1024" fill="none" xmlns="http://www.w3.org/2000/svg">
<g clip-path="url(#clip0_2_3513)">
<path d="M512 1024C794.77 1024 1024 794.77 1024 512C1024 229.23 794.77 0 512 0C229.23 0 0 229.23 0 512C0 794.77 229.23 1024 512 1024Z" fill="#56595B"/>
<path d="M512 256C370.58 256 256 370.58 256 512C256 653.42 370.58 768 512 768C653.42 768 768 653.42 768 512C768 370.58 653.42 256 512 256ZM512 718.45C397.94 718.45 305.55 626.06 305.55 512C305.55 397.94 397.94 305.55 512 305.55C626.06 305.55 718.45 397.94 718.45 512C718.45 626.06 626.06 718.45 512 718.45Z" fill="white"/>
</g>
<defs>
<clipPath id="clip0_2_3513">
<rect width="1024" height="1024" fill="white"/>
</clipPath>
</defs>
</svg>
